X:1
T:Di quella pira
T:Di quella pira
T:Giuseppe Verdi
T:Salvatore Cammarano
T:cabaletta
T:by IMSLP - Scritto con MuseScore, un software libero e gratuito: http://musescore.org/it
T:by IMSLP - Scritto con MuseScore, un software libero e gratuito: http://musescore.org/it
T:by IMSLP - Scritto con MuseScore, un software libero e gratuito: http://musescore.org/it
T:by IMSLP - Scritto con MuseScore, un software libero e gratuito: http://musescore.org/it
T:by IMSLP - Scritto con MuseScore, un software libero e gratuito: http://musescore.org/it
T:by IMSLP - Scritto con MuseScore, un software libero e gratuito: http://musescore.org/it
T:by IMSLP - Scritto con MuseScore, un software libero e gratuito: http://musescore.org/it
T:by IMSLP - Scritto con MuseScore, un software libero e gratuito: http://musescore.org/it
T:by IMSLP - Scritto con MuseScore, un software libero e gratuito: http://musescore.org/it
T:by IMSLP - Scritto con MuseScore, un software libero e gratuito: http://musescore.org/it
T:by IMSLP - Scritto con MuseScore, un software libero e gratuito: http://musescore.org/it
T:by IMSLP - Scritto con MuseScore, un software libero e gratuito: http://musescore.org/it
C:Giuseppe Verdi
Z:Salvatore Caramarano
Z:by IMSLP - Scritto con MuseScore, un software libero e gratuito: http://musescore.org/it
%%score ( 1 2 ) [ ( 3 4 ) ( 5 6 ) ] { 7 | ( 8 9 ) }
L:1/8
Q:1/4=115
M:3/4
K:F
V:1 treble-8 nm="Tenore"
V:2 treble-8 
V:3 treble-8 nm="Tenore"
V:4 treble-8 
V:5 bass nm="Basso"
V:6 bass 
V:7 treble nm="Piano"
V:8 bass 
V:9 bass 
V:1
"^Allegro." z6 ||[K:C] !>!e2 !>!e2 !>!e2 | (.e/.f/.e/.f/) !>!e4 | !>!c2 !>!c2 !>!c2 | %4
w: |Di quel\- la|pi _ _ _ ra|l'or\- ren\- do|
 (.G/.A/.G/.A/) !>!G4 | !>!g2 !>!g2 !>!g2 | (.f/.g/.f/.g/) f4 | (.d/.e/.d/.e/) d2 !>!e2 | %8
w: fo _ _ _ co|tut\- te le|fi _ _ _ bre|m'ar _ _ _ se.av\- vam\-|
 c2 z2 z2 | !>!e2 !>!e2 !>!e2 | (.e/.f/) (.e/.f/) !>!e4 | (.c2 .c2 .c2) | (.G/.A/.G/.A/) !>!G4 | %13
w: pò!|Em\- pi, spe\-|gne- * te- * la,|o ch'io fra|po _ _ _ co|
"^con tutta forza"!<(! g2 g2 ^g2!<)! |!>(! (a/^g/a/!>)!f/) !>!d4 | !>!f2 !>!e2 !>!d2 | c2 z2 z2 | %17
w: col san\- gue|vo _ _ _ stro|la spe\- gne\-|rò!|
!p! (._e2 .e2 .e2) | (.d/._e/.d/.e/) d4 | c2 c2 c2 | (._B/.c/.B/.c/) B4 | (g2 f2 _e2) | %22
w: E\- ra già|fi _ _ _ glio|pri\- ma d'a\-|mar _ _ _ ti,|non può fre\-|
 (.d/._e/.d/.e/) d4 | (.c2 ._B2 .A2) | G4 z2 |!f! (.e2 e2 .e2) | (.e/.f/.e/.f/) !>!e4 | %27
w: nar _ _ _ mi|il tuo mar\-|tir...|Ma\- drein\- fe\-|li _ _ _ ce,|
 (.c2 .c2 .c2) | (.G/.A/.G/.A/) !>!G4 |!<(! ([Gg]2 [Gg]2 [^G^g]2)!<)! |!>(! (a/^g/a/f/) !>!d4!>)! | %31
w: cor\- roa sal\-|var _ _ _ ti,|o te\- coal\-|me _ _ _ no|
 f2 e2 d2 ||[Q:1/4=120]"^Più vivo" c z/ G/ !>!g3 f | e (G/f/) !>!e3 d | c z/ G/ !>!g3 f | %35
w: cor\- roa mo\-|rir, o te\- coal|men cor- * roa mo\-|rir, o te\- coal|
 e2 z2 z3/2 c/ | (a6- | ag/f/ (ef)) (d!fermata!f) | c2 z c c c | f2 f f f f | _ec z c c c | %41
w: men, o|te|_ _ _ coa * mo- *|rir! Non reg\- goa|col\- pi tan\- to fu\-|nes\- sti... Oh quan\- to|
 f2 f f f f | _e2 z e e e | _e4 e3/2 e/ | _e4 e2 | ^f2 z2 z2 | z6 | z6 | !fermata!z6 || %49
w: me\- glio sa\- ria mo\-|rir! Oh quan\- to|me\- glio sa\-|ria mo\-|rir!||||
[Q:1/4=115]"^Allegro" z6 | !>!e2 !>!e2 !>!e2 | (.e/.f'/.e/.f'/) !>!e4 | !>!c2 !>!c2 !>!c2 | %53
w: |Di quel\- la|pi _ _ _ ra|l'or\- ren\- do|
 (.g/.a/.g/.a/) !>!g4 | !>!g'2 !>!g'2 !>!g'2 | (.f'/.g'/.f'/.g'/) f'4 | (.d/.e/.d/.e/) d2 !>!e2 | %57
w: fo _ _ _ co|tut\- te le|fi _ _ _ bre|m'ar _ _ _ se.av\- vam\-|
 c2 z2 z2 | !>!e2 !>!e2 !>!e2 | (.e/.f'/) (.e/.f'/) !>!e4 | (.c2 .c2 .c2) | (.g/.a/.g/.a/) !>!g4 | %62
w: pò!|Em\- pi, spe\-|gne- * te- * la,|o ch'io fra|po _ _ _ co|
!f!"^con tutta forza"!<(! g'2 g'2 ^g'2!<)! |!mf!!>(! (a'/^g'/a'/!>)!f'/) !>!d4 | %64
w: col san\- gue|vo _ _ _ stro|
 (!>!f'2 !>!e2 !>!d2) | c2 z2 z2 |!p! (._e2 .e2 .e2) | (.d/._e/.d/.e/) d4 | c2 c2 c2 | %69
w: la spe\- gne\-|rò!|E\- ra già|fi _ _ _ glio|pri\- ma d'a\-|
 (._b/.c/.b/.c/) b4 | (g'2 f'2 _e2) | (.d/._e/.d/.e/) d4 | (.c2 ._b2 .a2) | g4 z2 | %74
w: mar _ _ _ ti,|non può fre\-|nar _ _ _ mi|il tuo mar\-|tir...|
!f! (.e2 e2 .e2) | (.e/.f'/.e/.f'/) !>!e4 | (.c2 .c2 .c2) | (.g/.a/.g/.a/) !>!g4 | %78
w: Ma\- drein\- fe\-|li _ _ _ ce,|cor\- roa sal\-|var _ _ _ ti,|
!<(! ([gg']2 !fermata![cc']2 [bb']2)!<)! |!>(! (a'/^g'/a'/f'/) !>!d4!>)! | f'2 e2 d2 || %81
w: o te\- coal\-|me _ _ _ no|cor\- roa mo\-|
 c z/ g/ !>!g'3 f' | e (g/f'/) !>!e3 d | c z/ g/ !>!g'3 f' | e2 z2 z3/2 c/ | (a'6- | %86
w: rir, o te\- coal|men cor- * roa mo\-|rir, o te\- coal|men, o|te|
 a'g'/f'/ (ef')) (d!fermata!f') ||[Q:1/4=120]"^Poco più\nvivo" c2 || %88
w: _ _ _ coa * mo- *|rir!|
"^Ruiz with TENORS." z2 z3/2 c/ | c2 C z z3/2 c/ | c2 C z z3/2 c/ | c b (c2 ^d2) | %92
w: Al\-|l'ar\- mi! al\-|l'ar\- mi! al\-|l'ar\- mi! al\- l'ar\-|
"^Manrico" !>!e2 !>!e2 !>!e2 | e2 E z z2 | z6 | z6 | g'2 g'2 g'2 | _a'6 | _a'4 a'2 | %99
w: Ma\- drein\- fe\-|li\- ce!|||Cor\- roa sal\-|var\-|ti, o|
 (g'^f') g'2 =f'2 | _e4 =e2 | (f'e) f'2 ^f'2 | g'6 | g'2 g'2 g'2 | c2 z2 z2 | z6 | z6 | z6 | %108
w: te- * co al\-|men, o|te- * co al\-|men|cor\- roa mo\-|rir!||||
 !>!e2 !>!e2 !>!e2 | e2 E z z2 | z6 | z6 | g'2 g'2 g'2 | _a'6 | _a'4 a'2 | (g'^f') g'2 =f'2 | %116
w: Ma\- drein\- fe\-|li\- ce!|||Cor\- roa sal\-|var\-|ti, o|te- * co al\-|
 _e4 =e2 | (f'e) f'2 ^f'2 | g'6 | g'2 g'2 g'2 | c z/ g'/ g'4 | e z/ g'/ g'4 | e z/ g'/ g'4- | %123
w: men, o|te- * co al\-|men|cor\- roa mo\-|rir! Al\- l'ar\-|mi! Al\- l'ar\-|mi! Al\- ar|
 g'6- | g'6- | g'2 z2 z2 | z6 | z6 | z6 | z6 | z6 | z6 | z6 |] %133
w: _||mi!||||||||
V:2
 x6 ||[K:C] x6 | x6 | x6 | x6 | x6 | x6 | x6 | x6 | x6 | x6 | x6 | x6 | x6 | x6 | x6 | x6 | x6 | %18
 x6 | x6 | x6 | x6 | x6 | x6 | x6 | x6 | x6 | x6 | x6 | x6 | x6 | x6 || x6 | x6 | x6 | x6 | (a6 | %37
 ag/f/ ef) x2 | x6 | x6 | x6 | x6 | x6 | x6 | x6 | x6 | x6 | x6 | x6 || x6 | x6 | x6 | x6 | x6 | %54
 x6 | x6 | x6 | x6 | x6 | x6 | x6 | x6 | x6 | x6 | x6 | x6 | x6 | x6 | x6 | x6 | x6 | x6 | x6 | %73
 x6 | x6 | x6 | x6 | x6 | x6 | x6 | x6 || x6 | x6 | x6 | x6 | (a'6 | a'g'/f'/ ef') x2 || x2 || x4 | %89
 x6 | x6 | x2 c2 ^d2 | x6 | x6 | x6 | x6 | x6 | x6 | x6 | x6 | x6 | x6 | x6 | x6 | x6 | x6 | x6 | %107
 x6 | x6 | x6 | x6 | x6 | x6 | x6 | x6 | x6 | x6 | x6 | x6 | x6 | x6 | x6 | x6 | x6 | x6 | x6 | %126
 x6 | x6 | x6 | x6 | x6 | x6 | x6 |] %133
V:3
 z6 ||[K:C] z6 | z6 | z6 | z6 | z6 | z6 | z6 | z6 | z6 | z6 | z6 | z6 | z6 | z6 | z6 | z6 | z6 | %18
w: ||||||||||||||||||
 z6 | z6 | z6 | z6 | z6 | z6 | z6 | z6 | z6 | z6 | z6 | z6 | z6 | z6 || z6 | z6 | z6 | z6 | z6 | %37
w: |||||||||||||||||||
 z6 | z6 | z6 | z6 | z6 | z6 | z6 | z6 | z6 | z6 | z6 | z6 || z6 | z6 | z6 | z6 | z6 | z6 | z6 | %56
w: |||||||||||||||||||
 z6 | z6 | z6 | z6 | z6 | z6 | z6 | z6 | z6 | z6 | z6 | z6 | z6 | z6 | z6 | z6 | z6 | z6 | z6 | %75
w: |||||||||||||||||||
 z6 | z6 | z6 | z6 | z6 | z6 || z6 | z6 | z6 | z6 | z6 | z6 || z2 || z4 | z6 | z6 | z6 | %92
w: |||||||||||||||||
 e2 z2 z3/2 e/ | e2 E z z3/2 e/ | e2 E z z3/2 e/ | e ^d (e2 ^f2) | g2 z2 z2 | [_e_a]6 | %98
w: mi! al\-|l'ar\- mi! al\-|l'ar\- mi! al\-|l'ar\- mi! al\- l'ar\-|mi!|Ec\-|
 [_e_a]4 [ea]2 | (g^f) g2 =f2 | [c_e]4 =e2 | (fe) [cf]2 [c^f]2 | [eg]6 | [dg]4 [dg]2 | %104
w: co\- ne|pre- * sti a|pu\- gnar|te- * co, o|te\-|coa mo\-|
 c2 z2 z3/2 c/ | c2 C z z3/2 c/ | c2 C z z3/2 c/ | c B (c2 ^d2) | e2 z2 z3/2 e/ | e2 E z z3/2 e/ | %110
w: rir! Al\-|l'ar\- mi! al\-|l'ar\- mi! al\-|l'ar\- mi! al\- l'ar\-|mi! al\-|l'ar\- mi! al\-|
 e2 E z z3/2 e/ | e ^d (e2 ^f2) | g2 z2 z2 | [_e_a]6 | [_e_a]4 [ea]2 | (g^f) g2 =f2 | %116
w: l'ar\- mi! al\-|l'ar\- mi! al\- l'ar\-|mi!|Ec\-|co\- ne|pre- * sti a|
 [c_e]4 [c=e]2 | (fe) [cf]2 [c^f]2 | [eg]6 | [dg]4 [dg]2 | c2 z2 d2 | e c z2 d2 | e c z2 d2 | %123
w: pu\- gnar|te- * co, o|te\-|coa mo\-|rir! Al\-|l'ar\- mi! al\-|l'ar\- mi! al\-|
 [ce] [Bd] [ce] [Bd] [ce] [dg] | [ce]6- | [ce]2 z2 z2 | z6 | z6 | z6 | z6 | z6 | z6 | z6 |] %133
w: l'ar\- mi! all'ar mi! all'ar\- mi!|all'ar-|mi!||||||||
V:4
 x6 ||[K:C] x6 | x6 | x6 | x6 | x6 | x6 | x6 | x6 | x6 | x6 | x6 | x6 | x6 | x6 | x6 | x6 | x6 | %18
 x6 | x6 | x6 | x6 | x6 | x6 | x6 | x6 | x6 | x6 | x6 | x6 | x6 | x6 || x6 | x6 | x6 | x6 | x6 | %37
 x6 | x6 | x6 | x6 | x6 | x6 | x6 | x6 | x6 | x6 | x6 | x6 || x6 | x6 | x6 | x6 | x6 | x6 | x6 | %56
 x6 | x6 | x6 | x6 | x6 | x6 | x6 | x6 | x6 | x6 | x6 | x6 | x6 | x6 | x6 | x6 | x6 | x6 | x6 | %75
 x6 | x6 | x6 | x6 | x6 | x6 || x6 | x6 | x6 | x6 | x6 | x6 || x2 || x4 | x6 | x6 | x6 | x6 | x6 | %94
 x6 | x2 e2 ^f2 | x6 | x6 | x6 | _e2 e2 =B2 | x6 | c2 x4 | x6 | x6 | c2 x7/2 c/ | x6 | x6 | %107
 x2 c2 ^d2 | x6 | x6 | x6 | x2 e2 ^f2 | x6 | x6 | x6 | _e2 e2 =B2 | x6 | c2 x4 | x6 | x6 | c2 x4 | %121
 x6 | x6 | x6 | x6 | x6 | x6 | x6 | x6 | x6 | x6 | x6 | x6 |] %133
V:5
 z6 ||[K:C] z6 | z6 | z6 | z6 | z6 | z6 | z6 | z6 | z6 | z6 | z6 | z6 | z6 | z6 | z6 | z6 | z6 | %18
w: ||||||||||||||||||
 z6 | z6 | z6 | z6 | z6 | z6 | z6 | z6 | z6 | z6 | z6 | z6 | z6 | z6 || z6 | z6 | z6 | z6 | z6 | %37
w: |||||||||||||||||||
 z6 | z6 | z6 | z6 | z6 | z6 | z6 | z6 | z6 | z6 | z6 | z6 || z6 | z6 | z6 | z6 | z6 | z6 | z6 | %56
w: |||||||||||||||||||
 z6 | z6 | z6 | z6 | z6 | z6 | z6 | z6 | z6 | z6 | z6 | z6 | z6 | z6 | z6 | z6 | z6 | z6 | z6 | %75
w: |||||||||||||||||||
 z6 | z6 | z6 | z6 | z6 | z6 || z6 | z6 | z6 | z6 | z6 | z6 || z2 || z2 z3/2 C/ | C2 C, z z3/2 C/ | %90
w: |||||||||||||Al\-|l'ar\- mi! al\-|
 C2 C, z z3/2 C/ | C B, (C2 B,2) | E,2 z2 z3/2 E/ | E2 E, z z3/2 E/ | C2 C, z z3/2 C/ | %95
w: l'ar\- mi! al\-|l'ar\- mi! al\- l'ar\-|mi! al\-|l'ar\- mi! al\-|l'ar\- mi! al\-|
 E B, (E2 =D2) | G,2 z2 z2 | [_A,C]6 | [_A,C]4 [A,C]2 | _B,2 [_E,B,]2 [D,G,]2 | [C,G,]4 _B,2 | %101
w: l'ar\- mi! al\- l'ar\-||Ec\-|co\- ne|pre- sti a|pu\- gnar|
 (=A,_B,) _A,2 [A,C]2 | [G,C]6 | [G,=B,]4 [G,B,]2 | [C,C]2 z2 z3/2 C/ | C2 C, z z3/2 C/ | %106
w: te- * co, o|te\-|coa mo\-|rir! Al\-|l'ar\- mi! al\-|
 C2 C, z z3/2 C/ | C2 C, z z3/2 C/ | E,2 z2 z3/2 E/ | E2 E, z z3/2 E/ | C2 C, z z3/2 C/ | %111
w: l'ar\- mi! al\-|l'ar\- mi! al\-|mi! al\-|l'ar\- mi! al\-|l'ar\- mi! al\-|
 E B, (E2 =D2) | G,2 z2 z2 | [_A,C]6 | [_A,C]4 [A,C]2 | _B,2 [_E,B,]2 [D,G,]2 | [C,G,]4 _B,2 | %117
w: l'ar\- mi! al\- l'ar\-||Ec\-|co\- ne|pre- sti a|pu\- gnar|
 (=A,_B,) _A,2 [A,C]2 | [G,C]6 | [G,=B,]4 [G,B,]2 | [C,C]2 z2 G,2 | C C, z2 G,2 | C C, z2 G,2 | %123
w: te- * co, o|te\-|coa mo\-|rir! Al\-|l'ar\- mi! al\-|l'ar\- mi! al\-|
 C G, C G, C G, | C6- | C2 z2 z2 | z6 | z6 | z6 | z6 | z6 | z6 | z6 |] %133
w: l'ar\- mi! all'ar mi! all'ar\- mi!|all'ar-|mi!||||||||
V:6
 x6 ||[K:C] x6 | x6 | x6 | x6 | x6 | x6 | x6 | x6 | x6 | x6 | x6 | x6 | x6 | x6 | x6 | x6 | x6 | %18
 x6 | x6 | x6 | x6 | x6 | x6 | x6 | x6 | x6 | x6 | x6 | x6 | x6 | x6 || x6 | x6 | x6 | x6 | x6 | %37
 x6 | x6 | x6 | x6 | x6 | x6 | x6 | x6 | x6 | x6 | x6 | x6 || x6 | x6 | x6 | x6 | x6 | x6 | x6 | %56
 x6 | x6 | x6 | x6 | x6 | x6 | x6 | x6 | x6 | x6 | x6 | x6 | x6 | x6 | x6 | x6 | x6 | x6 | x6 | %75
 x6 | x6 | x6 | x6 | x6 | x6 || x6 | x6 | x6 | x6 | x6 | x6 || x2 || x4 | x6 | x6 | x2 C2 B,2 | %92
 x6 | x6 | x6 | x2 E2 =D2 | x6 | x6 | x6 | _E,D, x4 | x6 | =A,_B, _A,2 x2 | x6 | x6 | x11/2 C/ | %105
 x6 | x6 | x6 | x6 | x6 | x6 | x2 E2 =D2 | x6 | x6 | x6 | (_E,D,) x4 | x4 _B,2 | =A,_B, _A,2 x2 | %118
 x6 | x6 | x6 | x6 | x6 | x6 | x6 | x6 | x6 | x6 | x6 | x6 | x6 | x6 | x6 |] %133
V:7
 z6 ||[K:C] z6 | (.[Ge]/.[Af]/.[Ge]/.[Af]/) !>![Ge]4 | (.[_Ac]2 .[Ac]2 .[Ac]2) | %4
 .[EG]/.[F=A]/.[EG]/.[FA]/ !>![EG]4 |!8va(! !>![gg']2 !>![gg']2 !>![gg']2 | %6
 .[d'f']/.[e'g']/.[d'f']/.[e'g']/ [d'f']4 | [fd']/[ge']/[fd']/[ge']/ [fd']2 !>![ge']2 | %8
 [ec']2!8va)! z2 z2 | z6 | .[Ge]/.[Af]/.[Ge]/.[Af]/ !>![Ge]4 | (.[_Ac]2 .[Ac]2 .[Ac]2) | %12
 (.[EG]/.[FA]/.[EG]/.[FA]/) !>![EG]4 |!f!!8va(! [gg']2 [gg']2 [^g^g']2 | %14
{/b'} (a'/^g'/a'/f'/) !>!d'4 | !>![ff']2 !>![ee']2 !>![dd']2 | [cc']2!8va)! z2 z2 |!p! z6 | %18
 .[_Bd]/.[c_e]/.[Bd]/.[ce]/ [Bd]4 | z6 | .[G_B]/.[_Ac]/.[GB]/.[Ac]/ [GB]4 | z6 | %22
 .[_Bd]/.[c_e]/.[Bd]/.[ce]/ [Bd]4 | z6 | z [Gg]/[Gg]/!<(! .[Aa].[=B=b].[cc'].[dd']!<)! | %25
!f!!8va(! !>![ee']2 !>![ee']2 !>![ee']2!8va)! | .[Gf]/.[Af]/.[Ge]/.[Af]/ !>![Ge]4 | %27
!p! (.[_Ac]2 .[Ac]2 .[Ac]2) | .[EG]/.[FA]/.[EG]/.[FA]/ !>![EG]4 | %29
!<(!!8va(! [gg']2 [gg']2 [^g^g']2!<)! |{/b'} (.a'/.^g'/.a'/.f'/) !>!d'4 | %31
 !>![ff']2 !>![ee']2 !>![dd']2!8va)! || [cc'] [Gceg]/[Gceg]/ !>![Gceg]3 f | e (G/f/) !>!e3 d | %34
 c!ff! [Gceg]/[Gceg]/ !>![Gceg]3 f | e[B^d]/[Bd]/ [=ce][eg][eg][e^g] | %36
!ff! [Bdfa][Bdfa]/[Bdfa]/ [Bdfa][Bdfa][Bdfa][Bdfa] | [Bdfa]2 z2 !fermata!z2 | %38
 (c'/b/c'/d'/ _e'/c'/g/_e/ c/G/_E/C/) | (_A/F/D/C/) =B,/B,/B,/B,/ B,B, | %40
!ff! (c'/b/c'/d'/ _e'/c'/g/_e/ c/G/_E/C/) | (_A/F/D/C/) =B,/B,/B,/B,/ B,B, | %42
!p!!<(! _E/B,/C/D/ E/B,/C/D/ E/B,/C/D/ | _E/=E/F/^F/ G/_A/=A/_B/ =B/c/^c/d/!<)! | %44
!ff! [^Fc_e]>[ce^f] [cef]>[efa] [efa]>[eac'] | %45
 [^fc'_e']2 z [fc'e'^f']/[fc'e'f']/ [fc'e'f'][fc'e'f'] | %46
 [gc'_e'g']2 z [gc'e'g']/[gc'e'g']/ [gc'e'g'][gc'e'g'] | [gbd'g']2 [GBdg]2 z2 | !fermata!z6 || %49
!mf! z6 | z6 | (.[Ge]/.[Af]/.[Ge]/.[Af]/) !>![Ge]4 |!p! (.[_Ac]2 .[Ac]2 .[Ac]2) | %53
 .[EG]/.[F=A]/.[EG]/.[FA]/ !>![EG]4 |!8va(! !>![gg']2 !>![gg']2 !>![gg']2 | %55
 .[d'f']/.[e'g']/.[d'f']/.[e'g']/ [d'f']4 | [fd']/[ge']/[fd']/[ge']/ [fd']2 !>![ge']2 | %57
 [ec']2!8va)! z2 z2 | z6 | .[Ge]/.[Af]/.[Ge]/.[Af]/ !>![Ge]4 | (.[_Ac]2 .[Ac]2 .[Ac]2) | %61
 (.[EG]/.[FA]/.[EG]/.[FA]/) !>![EG]4 |!f!!8va(! [gg']2 [gg']2 [^g^g']2 | %63
{/b'} (a'/^g'/a'/f'/) !>!d'4 | !>![ff']2 !>![ee']2 !>![dd']2 | [cc']2!8va)! z2 z2 |!p! z6 | %67
 .[_Bd]/.[c_e]/.[Bd]/.[ce]/ [Bd]4 | z6 | .[G_B]/.[_Ac]/.[GB]/.[Ac]/ [GB]4 | z6 | %71
 .[_Bd]/.[c_e]/.[Bd]/.[ce]/ [Bd]4 | z6 | z [Gg]/[Gg]/!<(! .[Aa].[=B=b].[cc'].[dd']!<)! | %74
!f!!8va(! !>![ee']2 !>![ee']2 !>![ee']2!8va)! | .[Gf]/.[Af]/.[Ge]/.[Af]/ !>![Ge]4 | %76
!p! (.[_Ac]2 .[Ac]2 .[Ac]2) | .[EG]/.[FA]/.[EG]/.[FA]/ !>![EG]4 | %78
!<(!!8va(! [gg']2 [gg']2 [^g^g']2!<)! |{/b'} (.a'/.^g'/.a'/.f'/) !>!d'4 | %80
 !>![ff']2 !>![ee']2 !>![dd']2!8va)! || [cc'] [Gceg]/[Gceg]/ !>![Gceg]3 f | e (G/f/) !>!e3 d | %83
 c!ff! [Gceg]/[Gceg]/ !>![Gceg]3 f | e[B^d]/[Bd]/!f!!<(! [=ce][eg][eg]!<)![e^g] | %85
!ff! [Bdfa][Bdfa]/[Bdfa]/ [Bdfa][Bdfa][Bdfa][Bdfa] | [Bdfa]2 z2 !fermata!z2 || %87
 !arpeggio!!>![cegc'] [EGc]/[EGc]/ || [EGc][EGc][EGc][EGc] | %89
 !>![cegc'] [EGc]/[EGc]/ [EGc][EGc][EGc][EGc] | !>![cegc'] [EGc]/[EGc]/ [EGc][EGc][EGc][EGc] | z6 | %92
 !>![cegc'] [GBe]/[GBe]/ [GBe][GBe][GBe][GBe] | !>![cegc'] [GBe]/[GBe]/ [GBe][GBe][GBe][GBe] | %94
 !>![cegc'] [GBe]/[GBe]/ [GBe][GBe][GBe][GBe] | !>![gbe']!>![^fb^d'] !>![gbe']2 !>![a=c'd'^f']2 | %96
 !>![cegc'] [Gg]/[Gg]/ [Gg][Gg][Gg][Gg] | !///-![c_e_a]3 _A3 | !///-![c_e_a]3 _A3 | %99
 [_Bg]/G/^f/^F/ [Bg]/G/[Bg]/G/ [=B=f]/G/[Bf]/G/ | [c_e]/G/[ce]/G/ [ce]/G/[ce]/G/ [c=e]/G/[ce]/e/ | %101
 [cf]/F/[cf]/E/ [cf]/F/[cf]/F/ [c^f]/^F/[cf]/F/ | !///-![ceg]3 G3 | !///-![dgb]3 B3 | %104
 !>![egc'] [DFc]/[DFc]/ [DFc][DFc][DFc][DFc] | !>![egc'] [DFc]/[DFc]/ [DFc][DFc][DFc][DFc] | %106
 !>![egc'] [DFc]/[DFc]/ [DFc][DFc][DFc][DFc] | !>![egc']!>![dgb] !>![egc']2 !>![fbd']2 | %108
 !>![cegc'] [GBe]/[GBe]/ [GBe][GBe][GBe][GBe] | !>![cegc'] [GBe]/[GBe]/ [GBe][GBe][GBe][GBe] | %110
 !>![cegc'] [GBe]/[GBe]/ [GBe][GBe][GBe][GBe] | !>![gbe']!>![^fb^d'] !>![gbe']2 !>![a=c'd'^f']2 | %112
 !>![gbd'g'] [Gg]/[Gg]/ [Gg][Gg][Gg][Gg] | !///-![c_e_a]3 _A3 | !///-![c_e_a]3 _A3 | %115
 [_Bg]/G/^f/^F/ [Bg]/G/[Bg]/G/ [=B=f]/G/[Bf]/G/ | [c_e]/G/[ce]/G/ [ce]/G/[ce]/G/ [c=e]/G/[ce]/e/ | %117
 [cf]/F/[cf]/E/ [cf]/F/[cf]/F/ [c^f]/^F/[cf]/F/ | !///-![ceg]3 G3 | !///-![dgb]3 B3 | %120
 !>![egc']2 z [dgb]/[dgb]/ [dgb][dgb] | !>![egc']2 z [dgb]/[dgb]/ [dgb][dgb] | %122
 !>![egc']2 z [dgb]/[dgb]/ [dgb][dgb] | !>![egc']!>![egc'] !>![egc']!>![egc'] !>![egc']!>![egc'] | %124
 [ec']/g/a/b/ [ec']/g/a/b/ [ec']/g/a/b/ | [ec']/b/c'/e'/ g/^f/g/c'/ e/^d/e/g/ | %126
"^(Exit Manrico in haste, followed by Ruiz and the Soldiers, amid a din of arms, the trumpet calling to battle.)" c/B/c/e/ G/^F/G/c/ E/^D/E/G/ | %127
 C/=F/E/=D/ C/F/E/D/ C/F/E/D/ | C2 z [EGc]/[EGc]/ [Gce][ceg] | [cegc']2 [gc'e']2 [c'e'g']2 | %130
!8va(! [e'g'c'']2 z2 z3/2 c/!8va)! | C2 z2 z3/2 C/ | !fermata!C6 |] %133
V:8
 C,[G,CE]/[G,CE]/[G,CE][G,CE] E,[G,CE] ||[K:C] C,[G,CE]/[G,CE]/[G,CE][G,CE] E,[G,CE] | %2
 C,[G,CE]/[G,CE]/[G,CE][G,CE] E,[G,CE] | C,[_A,CF]/[A,CF]/[A,CF][A,CF] F,[G,CF] | %4
 C,[G,C]/[G,C]/[G,C][G,C] E,[G,C] | C,[G,CE]/[G,CE]/ [G,CE][G,CE] E,[G,CE] | %6
 G,,[G,B,F]/[G,B,F]/ [G,B,F][G,B,F]B,,[G,B,F] | G,,[G,B,F]/[G,B,F]/ [G,B,F][G,B,F] G,,[G,B,F] | %8
 C,[G,C]/[G,C]/[G,C][G,C]E,[G,C] | C,[G,CE]/[G,CE]/[G,CE][G,CE] E,[G,CE] | %10
 C,[G,CE]/[G,CE]/[G,CE][G,CE] E,[G,CE] | C,[_A,CF]/[A,CF]/[A,CF][A,CF] F,[A,CF] | %12
 C,[G,C]/[G,C]/[G,C][G,C] E,[G,C] | C,[G,CE]/[G,CE]/[G,CE][G,CE] E,[G,CE] | %14
 G,,[G,B,F]/[G,B,F]/[G,B,F][G,B,F] B,,[G,B,F] | G,,[G,B,F]/[G,B,F]/[G,B,F][G,B,F] B,,[G,B,F] | %16
 C,[G,CE]/[G,CE]/[G,CE][G,CE] E,[G,CE] | C,[G,C_E]/[G,CE]/[G,CE][G,CE] _E,[G,CE] | %18
 D,[_B,DG]/[B,DG]/[B,DG][B,DG] G,[B,DG] | D,[A,D^F]/[A,DF]/[A,DF][A,DF] ^F,[A,DF] | %20
 _E,[_B,_E]/[B,E]/[B,E][B,E] G,[B,E] | C,[G,C_E]/[G,CE]/[G,CE][G,CE] _E,[G,CE] | %22
 D,[_B,DG]/[B,DG]/[B,DG][B,DG] D,[B,DG] | D,[A,D^F]/[A,DF]/[A,DF][A,DF] D,[A,DF] | %24
 G, [G,,=B,,D,=F,]/[G,,B,,D,F,]/ [G,,B,,D,F,][G,,B,,D,F,][G,,B,,D,F,][G,,B,,D,F,] | %25
 C,[G,CE]/[G,CE]/[G,CE][G,CE] E,[G,CE] | C,[G,CE]/[G,CE]/[G,CE][G,CE] E,[G,CE] | %27
 C,[_A,CF]/[A,CF]/[A,CF][A,CF] z [A,CF] | C,[G,C]/[G,C]/[G,C][G,C] E,[G,C] | %29
 C,[G,CE]/[G,CE]/[G,CE][G,CE] E,[G,CE] | G,,[G,B,F]/[G,B,F]/[G,B,F][G,B,F] B,,[G,B,F] | %31
 G,,[G,B,F]/[G,B,F]/[G,B,F][G,B,F] G,,[G,B,F] || %32
 [CE] [_B,,_B,]/[B,,B,]/ !>![B,,B,] .[B,C].[A,C].[_A,C] | G,[CE] G,[CE] G,[=B,F] | %34
 [CE] [_B,,_B,]/[B,,B,]/ !>![B,,B,]!p! .C.[A,C].[_A,C] | %35
 [G,C][G,,G,]/[G,,G,]/ [G,,G,][G,,G,][G,,G,][A,,G,] | %36
 [G,,,G,,][G,,,G,,]/[G,,,G,,]/ [G,,,G,,][G,,,G,,][G,,,G,,][G,,,G,,] | [G,,,G,,]2 z2 !fermata!z2 | %38
 !arpeggio![C,,_E,,G,,C,] !>![C,_E,G,C]4 z | [F,,_A,,C,F,] z!f! !>![D,F,]4 | %40
 !arpeggio![C,,_E,,G,,C,] z !>![C,_E,G,C]4 | !arpeggio![F,,_A,,C,F,] z!f! !>![D,F,]4 | %42
 [=A,,C,^F,][A,,C,F,] [A,,C,F,][A,,C,F,][A,,C,F,][A,,C,F,] | %43
 [A,,C,^F,][A,,C,F,] [A,,C,F,][A,,C,F,][A,,C,F,][A,,C,F,] | %44
 [A,,,A,,]>[A,,,A,,] [A,,,A,,]>[A,,,A,,] [A,,,A,,]>[A,,,A,,] | %45
 [A,,,A,,]2 z [A,,C,_E,^F,]/[A,,C,E,F,]/ [A,,C,E,F,][A,,C,E,F,] | %46
 [G,,C,_E,G,]2 z [G,,C,E,G,]/[G,,C,E,G,]/ [G,,C,E,G,][G,,C,E,G,] | [G,,B,,D,G,]2 [G,,,G,,]2 z2 | %48
 !fermata!z6 || C,[G,CE]/[G,CE]/[G,CE][G,CE] E,[G,CE] | C,[G,CE]/[G,CE]/[G,CE][G,CE] E,[G,CE] | %51
 C,[G,CE]/[G,CE]/[G,CE][G,CE] E,[G,CE] | C,[_A,CF]/[A,CF]/[A,CF][A,CF] F,[G,CF] | %53
 C,[G,C]/[G,C]/[G,C][G,C] E,[G,C] | C,[G,CE]/[G,CE]/ [G,CE][G,CE] E,[G,CE] | %55
 G,,[G,B,F]/[G,B,F]/ [G,B,F][G,B,F]B,,[G,B,F] | G,,[G,B,F]/[G,B,F]/ [G,B,F][G,B,F] G,,[G,B,F] | %57
 C,[G,C]/[G,C]/[G,C][G,C]E,[G,C] | C,[G,CE]/[G,CE]/[G,CE][G,CE] E,[G,CE] | %59
 C,[G,CE]/[G,CE]/[G,CE][G,CE] E,[G,CE] | C,[_A,CF]/[A,CF]/[A,CF][A,CF] F,[A,CF] | %61
 C,[G,C]/[G,C]/[G,C][G,C] E,[G,C] | C,[G,CE]/[G,CE]/[G,CE][G,CE] E,[G,CE] | %63
 G,,[G,B,F]/[G,B,F]/[G,B,F][G,B,F] B,,[G,B,F] | G,,[G,B,F]/[G,B,F]/[G,B,F][G,B,F] B,,[G,B,F] | %65
 C,[G,CE]/[G,CE]/[G,CE][G,CE] E,[G,CE] | C,[G,C_E]/[G,CE]/[G,CE][G,CE] _E,[G,CE] | %67
 D,[_B,DG]/[B,DG]/[B,DG][B,DG] G,[B,DG] | D,[A,D^F]/[A,DF]/[A,DF][A,DF] ^F,[A,DF] | %69
 _E,[_B,_E]/[B,E]/[B,E][B,E] G,[B,E] | C,[G,C_E]/[G,CE]/[G,CE][G,CE] _E,[G,CE] | %71
 D,[_B,DG]/[B,DG]/[B,DG][B,DG] D,[B,DG] | D,[A,D^F]/[A,DF]/[A,DF][A,DF] D,[A,DF] | %73
 G, [G,,=B,,D,=F,]/[G,,B,,D,F,]/ [G,,B,,D,F,][G,,B,,D,F,][G,,B,,D,F,][G,,B,,D,F,] | %74
 C,[G,CE]/[G,CE]/[G,CE][G,CE] E,[G,CE] | C,[G,CE]/[G,CE]/[G,CE][G,CE] E,[G,CE] | %76
 C,[_A,CF]/[A,CF]/[A,CF][A,CF] z [A,CF] | C,[G,C]/[G,C]/[G,C][G,C] E,[G,C] | %78
 C,[G,CE]/[G,CE]/[G,CE][G,CE] E,[G,CE] | G,,[G,B,F]/[G,B,F]/[G,B,F][G,B,F] B,,[G,B,F] | %80
 G,,[G,B,F]/[G,B,F]/[G,B,F][G,B,F] G,,[G,B,F] || %81
 [CE] [_B,,_B,]/[B,,B,]/ !>![B,,B,] .[B,C].[A,C].[_A,C] | G,[CE] G,[CE] G,[=B,F] | %83
 [CE] [_B,,_B,]/[B,,B,]/ !>![B,,B,]!p! .C.[A,C].[_A,C] | %84
 [G,C][G,,G,]/[G,,G,]/ [G,,G,][G,,G,][G,,G,][A,,G,] | %85
 [G,,,G,,][G,,,G,,]/[G,,,G,,]/ [G,,,G,,][G,,,G,,][G,,,G,,][G,,,G,,] | [G,,,G,,]2 z2 !fermata!z2 || %87
 [C,E,G,C]2 || z2 z2 |({G,,A,,)B,,} !>![C,,C,]2 z2 z2 |({G,,A,,)B,,} !>![C,,C,]2 z2 z2 | %91
({G,,A,,)B,,} !>![C,,C,]!>![G,,,G,,] !>![C,,C,]2 !>![B,,,B,,]2 | !>![C,,C,]2 z2 z2 | %93
({B,,^C,)^D,} !>![E,,E,]2 z2 z2 |({B,,^C,)^D,} !>![E,,E,]2 z2 z2 | %95
({B,,^C,)^D,} !>![E,,E,]!>![B,,,B,,] !>![E,,E,]2 !>![=D,,=D,]2 | !>![C,,C,]2 z2 z2 | %97
 _A,,,C,,_E,,_A,,E,,C,, | _A,,,C,,_E,,_A,,E,,C,, | !>![_E,,_E,]!>![D,,D,] !>![D,,E,]2 !>![D,,D,]2 | %100
 !>![C,,C,][C,,C,][C,,C,][C,,C,] !>![_B,,,_B,,][B,,,B,,] | %101
 !>![A,,,A,,]!>![_B,,,_B,,] !>![A,,,A,,]2 !>![_A,,,_A,,]2 | G,,,C,,E,,G,,E,,C,, | %103
 !>![G,,,G,,]2 !>![G,,,G,,]2 !>![G,,,G,,]2 | !>![C,,C,]2 z2 z2 |({G,,A,,)B,,} !>![C,,C,]2 z2 z2 | %106
({G,,A,,)B,,} !>![C,,C,]2 z2 z2 |({G,,A,,)B,,} !>![C,,C,]!>![G,,,G,,] !>![C,,C,]2 !>![B,,,B,,]2 | %108
 !>![C,,C,]2 z2 z2 |({B,,^C,)^D,} !>![E,,E,]2 z2 z2 |({B,,^C,)^D,} !>![E,,E,]2 z2 z2 | %111
({B,,^C,)^D,} !>![E,,E,]!>![B,,,B,,] !>![E,,E,]2 !>![=D,,=D,]2 | !>![C,,C,]2 z2 z2 | %113
 _A,,,C,,_E,,_A,,E,,C,, | _A,,,C,,_E,,_A,,E,,C,, | !>![_E,,_E,]!>![D,,D,] !>![D,,E,]2 !>![D,,D,]2 | %116
 !>![C,,C,][C,,C,][C,,C,][C,,C,] !>![_B,,,_B,,][B,,,B,,] | %117
 !>![A,,,A,,]!>![_B,,,_B,,] !>![A,,,A,,]2 !>![_A,,,_A,,]2 | G,,,C,,E,,G,,E,,C,, | %119
 !>![G,,,G,,]2 !>![G,,,G,,]2 !>![G,,,G,,]2 | %120
 !>![C,,C,]2 z [G,,B,,D,G,]/[G,,B,,D,G,]/ [G,,B,,D,G,][G,,B,,D,G,] | %121
 !>![C,E,G,]2 z [G,,B,,D,G,]/[G,,B,,D,G,]/ [G,,B,,D,G,][G,,B,,D,G,] | %122
 !>![C,E,G,]2 z [G,,B,,D,G,]/[G,,B,,D,G,]/ [G,,B,,D,G,][G,,B,,D,G,] | %123
 !>![C,,C,]!>![G,,,G,,] !>![C,,C,]!>![G,,,G,,] !>![C,,C,]!>![G,,,G,,] | %124
 [C,,C,]/G,,/A,,/B,,/ [C,,C,]/G,,/A,,/B,,/ [C,,C,]/G,,/A,,/B,,/ | [C,,C,]2 z2 z2 | %126
 C/B,/C/E/ G,/^F,/G,/C/ E,/^D,/E,/G,/ | C,/=F,/E,/=D,/ C,/F,/E,/D,/ C,/F,/E,/D,/ | %128
 C,2 z [C,E,G,C]/[C,E,G,C]/ [C,E,G,C][C,E,G,C] | [C,E,G,C]2 [C,E,G,C]2 [C,E,G,C]2 | %130
 [C,E,G,C]2 z2 z3/2 [C,,C,]/ | [C,,C,]2 z2 z3/2 [C,,C,]/ | !fermata![C,,C,]6 |] %133
V:9
 x6 ||[K:C] x6 | x6 | x6 | x6 | x6 | x6 | x6 | x6 | x6 | x6 | x6 | x6 | x6 | x6 | x6 | x6 | x6 | %18
 x6 | x6 | x6 | x6 | x6 | x6 | x6 | x6 | x6 | x6 | x6 | x6 | x6 | x6 || x6 | x6 | x6 | x6 | x6 | %37
 x6 | x6 | x2 (_A,,2 G,,2) | x6 | x2 (_A,,2 G,,2) | x6 | x6 | x6 | x6 | x6 | x6 | x6 || x6 | x6 | %51
 x6 | x6 | x6 | x6 | x6 | x6 | x6 | x6 | x6 | x6 | x6 | x6 | x6 | x6 | x6 | x6 | x6 | x6 | x6 | %70
 x6 | x6 | x6 | x6 | x6 | x6 | x6 | x6 | x6 | x6 | x6 || x6 | x6 | x6 | x6 | x6 | x6 || x2 || x4 | %89
 x6 | x6 | x6 | x6 | x6 | x6 | x6 | x6 | !>!_A,,,6 | !>!_A,,,6 | x6 | x6 | x6 | !>!G,,,6 | x6 | %104
 x6 | x6 | x6 | x6 | x6 | x6 | x6 | x6 | x6 | !>!_A,,,6 | !>!_A,,,6 | x6 | x6 | x6 | !>!G,,,6 | %119
 x6 | x6 | x6 | x6 | x6 | x6 | x6 | x6 | x6 | x6 | x6 | x6 | x6 | x6 |] %133

